X:1
T:While Shepherds Watched Their Flock
T:While Shepherds Watched Their Flock
%%score ( 1 2 ) ( 3 4 )
L:1/8
M:4/4
K:C
V:1 treble nm="Piano" snm="Pno."
V:2 treble 
V:3 bass nm="Piano" snm="Pno."
V:4 bass 
V:1
 E>F | [CG]2 [Ec]2 B2 [FA]2 | [CG]2 C>D [CE]2 E>F | [CG]2 [CG]2 | G2 [DF][CE] | %5
w: 1~While _|shep- herds watched their|flocks by _ night, all _|seat- ed|on the _|
w: 2~"Fear _|not!" said he, for|migh- ty _ dread had _|seized their|trou- bled _|
w: 3~"To _|you, in Da- vid's|town, this _ day is _|born of|Da- vid's _|
w: 4~"The _|heaven- ly babe you|there shall _ find to _|hu- man|view dis- *|
w: 5~Thus _|spoke the se- raph,|and forth- * with ap- *|peared a|shin- ing _|
w: 6~"All _|glo- ry be to|God on _ high, and _|to the|earth be _|
 (([CE]2 [B,D]4)) Bc | d2 [EG]2 [DF]2 [B,F]2 | [CF]2 ED [CE]2 | cB | [FA]2 [EG]2 [CF]2 [CE]2 | %10
w: ground, _ the _|an- gel of the|Lord came _ down,|and _|glo- ry shone a-|
w: mind; _ "Glad _|ti- dings of great|joy I _ bring|to _|you and hu- man-|
w: line _ a _|Sa- vior who is|Christ the _ Lord;|and _|this shall be the|
w: played, _ all _|sim- ply wrapped in|swadd- ling _ bands,|and _|in a man- ger|
w: throng _ of _|an- gels prais- ing|God, who _ thus|ad- *|dressed their joy- ful|
w: peace; _ good _|will hen- ceforth from|heaven to _ all|be- *|gin and ne- ver|
 (A2 G4) [Dd]2 | [EG]2 c2 [CE]2 [B,D]2 | C6 |] %13
w: round, _ and|glo- ry shone a-|round.|
w: kind, _ to|you and hu- man-|kind.|
w: sign, _ and|this shall be the|sign:|
w: laid, _ and|in a man- ger|laid."|
w: song, _ ad-|dressed their joy- ful|song:|
w: cease, _ be-|gin and ne- ver|cease!"|
V:2
 C2 | x4 DE x2 | x2 C>B, x2 C2 | x4 | CE x2 | x6 G2 | GF x6 | x2 C2 x2 | E2 | x8 | C6 x2 | %11
 x2 C>D x4 | C6 |] %13
V:3
 G,2 | [E,G,]2 [C,G,]2 G,2 A,B, | [E,C]2 G,2 [C,G,]2 G,2 | [E,G,]2 [C,E,]2 | [E,C]2 [F,A,]2 | %5
 G,6 D2 | [B,,D]2 C_B, [D,A,]2 [G,,G,]2 | [C,A,]2 G,F, [C,G,]2 | [C,G,]2 | %9
 [C,C]2 CB, [C,A,]2 [C,G,]2 | (F,2 E,4) A,>B, | [E,C]2 [E,G,]>[F,A,] G,2 G,F, | [C,E,]6 |] %13
V:4
 C,>D, | x4 G,2 F,2 | x2 E,>D, x2 C,>D, | x4 | x4 | G,6 G,,A,, | x2 C,2 x4 | x2 C,2 x2 | x2 | %9
 x2 C,2 x4 | C,6 F,2 | x4 G,2 G,,2 | x6 |] %13

